X:1
T:Madame Del Caro's -- Hornpipe
R:hornpipe
B:Cole's 1000 Fiddle Tunes
M:C|
L:1/8
K:G
(v.G>.B)(u.d>.g) (.f>.e)(.d>"4".e)|"Segue"d>cB>A B>cd2|\
G>Bd>g f>ed>c|B>AG>F G2G2|
G>Bd>g f>ed>"4"e|d>cB>A B>cd2|\
G>Bd>g f>ed>c|B>AG>F G2G2|]
vG>Bd>g (e/f/g) (e/f/g)|D>FA>c (B/c/d) (B/c/d)|\
G>Bd>g (e/f/g) (e/f/g)|B>AG>F G2G2|
G>Bd>g (e/f/g) (e/f/g)|D>FA>c (B/c/d) (B/c/d)|\
G>Bd>g (e/f/g) (e/f/g)|B>AG>F G2G2|]
